src/polling-place-24.svg

<?xml version="1.0" encoding="UTF-8" standalone="no"?>
<!-- Created with Inkscape (http://www.inkscape.org/) -->

<svg
   xmlns:dc="http://purl.org/dc/elements/1.1/"
   xmlns:cc="http://creativecommons.org/ns#"
   xmlns:rdf="http://www.w3.org/1999/02/22-rdf-syntax-ns#"
   xmlns:svg="http://www.w3.org/2000/svg"
   xmlns="http://www.w3.org/2000/svg"
   xmlns:inkscape="http://www.inkscape.org/namespaces/inkscape"
   version="1.1"
   width="24"
   height="24"
   id="svg4460">
  <defs
     id="defs4462" />
  <metadata
     id="metadata4465">
    <rdf:RDF>
      <cc:Work
         rdf:about="">
        <dc:format>image/svg+xml</dc:format>
        <dc:type
           rdf:resource="http://purl.org/dc/dcmitype/StillImage" />
        <dc:title />
      </cc:Work>
    </rdf:RDF>
  </metadata>
  <g
     transform="translate(0,-1028.3622)"
     id="layer1">
    <path
       d="M 20.4375,2 C 19.670898,2.04 19.035749,2.4275 18.625,2.9375 l -0.03125,0 L 16,6 16,4 A 0.99323983,0.99323983 0 0 0 15,3 L 6,3 C 4.9129787,3 4,3.9129787 4,5 l 0,13 c 0,1.087021 0.9129787,2 2,2 l 13,0 c 1.087021,0 2,-0.912979 2,-2 l 0,-6 a 0.99323983,0.99323983 0 0 0 -1,-1 l -1.59375,0 4.0625,-4.90625 A 1.0001,1.0001 0 0 0 22.5,6.0625 C 22.789534,5.6558 22.912116,5.2081 22.96875,4.75 23.02538,4.2919 23.03759,3.79155 22.75,3.28125 22.262632,2.41675 21.359464,1.9512 20.4375,2 z m -5.25,4.96875 -2.21875,2.625 -1.0625,-1.25 C 10.972048,7.25125 9.3595702,7.14935 8.28125,8.09375 8.1707918,8.1903625 8.0853191,8.3272895 8,8.4375 L 8,7 15,7 A 0.99323983,0.99323983 0 0 0 15.1875,6.96875 z M 8,11.4375 c 0.051287,0.07415 0.097445,0.149248 0.15625,0.21875 l 3,3.53125 C 11.538274,15.6228 12.043586,15.898837 12.5625,16 L 8,16 8,11.4375 z m 9,1.25 0,3.3125 -3.40625,0 c 0.515908,-0.118953 1.005001,-0.429838 1.375,-0.875 L 17,12.6875 z"
       inkscape:connector-curvature="0"
       transform="translate(0,1028.3622)"
       id="path3170"
       style="font-size:medium;font-style:normal;font-variant:normal;font-weight:normal;font-stretch:normal;text-indent:0;text-align:start;text-decoration:none;line-height:normal;letter-spacing:normal;word-spacing:normal;text-transform:none;direction:ltr;block-progression:tb;writing-mode:lr-tb;text-anchor:start;baseline-shift:baseline;opacity:0.3;color:#000000;fill:#ffffff;fill-opacity:1;stroke:none;stroke-width:3;marker:none;visibility:visible;display:inline;overflow:visible;enable-background:accumulate;font-family:Sans;-inkscape-font-specification:Sans" />
    <path
       d="M 20.5,3 C 19.998765,3.026 19.617488,3.254 19.375,3.5625 L 13,11.1875 11.15625,9.03125 C 10.618537,8.40245 9.5601757,8.3297 8.9375,8.875 8.3148243,9.4198 8.4293646,10.4363 8.90625,11 l 3,3.53125 c 0.570015,0.6494 1.729091,0.63335 2.28125,-0.03125 l 7.5,-9.03125 C 22,5.02985 22.121452,4.21845 21.875,3.78125 21.580465,3.25875 21.013734,2.9728 20.5,3 z M 6,4 C 5.446,4 5,4.446 5,5 l 0,13 c 0,0.554 0.446,1 1,1 l 13,0 c 0.554,0 1,-0.446 1,-1 l 0,-6 -2,0 0,5 L 7,17 7,6 15,6 15,4 6,4 z"
       inkscape:connector-curvature="0"
       transform="translate(0,1028.3622)"
       id="rect11284"
       style="color:#000000;fill:#444444;fill-opacity:1;stroke:none;stroke-width:2;marker:none;visibility:visible;display:inline;overflow:visible;enable-background:accumulate" />
  </g>
  <rect
     width="24"
     height="24"
     x="0"
     y="0"
     id="canvas"
     style="fill:none;stroke:none;visibility:hidden" />
</svg>

<?xml version="1.0" encoding="UTF-8" standalone="no"?>
<!-- Created with Inkscape (http://www.inkscape.org/) -->

<svg
   xmlns:dc="http://purl.org/dc/elements/1.1/"
   xmlns:cc="http://creativecommons.org/ns#"
   xmlns:rdf="http://www.w3.org/1999/02/22-rdf-syntax-ns#"
   xmlns:svg="http://www.w3.org/2000/svg"
   xmlns="http://www.w3.org/2000/svg"
   xmlns:sodipodi="http://sodipodi.sourceforge.net/DTD/sodipodi-0.dtd"
   xmlns:inkscape="http://www.inkscape.org/namespaces/inkscape"
   width="24"
   height="24"
   id="svg4460"
   version="1.1"
   inkscape:version="0.48.4 r"
   sodipodi:docname="polling-place-24.svg">
  <defs
     id="defs4462" />
  <sodipodi:namedview
     id="base"
     pagecolor="#ffffff"
     bordercolor="#666666"
     borderopacity="1.0"
     inkscape:pageopacity="0.0"
     inkscape:pageshadow="2"
     inkscape:zoom="11.313708"
     inkscape:cx="9.1266245"
     inkscape:cy="14.701238"
     inkscape:document-units="px"
     inkscape:current-layer="layer1"
     showgrid="false"
     showguides="false"
     inkscape:guide-bbox="true"
     inkscape:window-width="1251"
     inkscape:window-height="919"
     inkscape:window-x="216"
     inkscape:window-y="21"
     inkscape:window-maximized="0"
     inkscape:snap-grids="false"
     inkscape:snap-to-guides="false">
    <inkscape:grid
       type="xygrid"
       id="grid4468"
       empspacing="2"
       visible="true"
       enabled="true"
       snapvisiblegridlinesonly="true"
       originx="-2.7755576e-17px"
       color="#ff00ff"
       opacity="0.1254902"
       empcolor="#ff00ff"
       empopacity="0.25098039" />
    <sodipodi:guide
       orientation="1,0"
       position="0,20"
       id="guide4470" />
    <sodipodi:guide
       orientation="0,1"
       position="4,24"
       id="guide4472" />
    <sodipodi:guide
       orientation="1,0"
       position="24,13"
       id="guide4474" />
    <sodipodi:guide
       orientation="0,1"
       position="15,0"
       id="guide4476" />
    <sodipodi:guide
       orientation="1,0"
       position="23,20"
       id="guide4478" />
    <sodipodi:guide
       orientation="0,1"
       position="20,23"
       id="guide4480" />
    <sodipodi:guide
       orientation="1,0"
       position="2,5"
       id="guide4482" />
    <sodipodi:guide
       orientation="0,1"
       position="7,2"
       id="guide4484" />
    <sodipodi:guide
       orientation="1,0"
       position="12.5,17"
       id="guide4486" />
    <sodipodi:guide
       orientation="0,1"
       position="21,12.5"
       id="guide4490" />
    <sodipodi:guide
       orientation="1,0"
       position="3,20"
       id="guide2995" />
    <sodipodi:guide
       orientation="0,1"
       position="7,22"
       id="guide2997" />
    <sodipodi:guide
       orientation="1,0"
       position="22,14"
       id="guide2999" />
    <sodipodi:guide
       orientation="0,1"
       position="9,3"
       id="guide3001" />
  </sodipodi:namedview>
  <metadata
     id="metadata4465">
    <rdf:RDF>
      <cc:Work
         rdf:about="">
        <dc:format>image/svg+xml</dc:format>
        <dc:type
           rdf:resource="http://purl.org/dc/dcmitype/StillImage" />
        <dc:title />
      </cc:Work>
    </rdf:RDF>
  </metadata>
  <g
     inkscape:label="Layer 1"
     inkscape:groupmode="layer"
     id="layer1"
     transform="translate(0,-1028.3622)">
    <path
       style="font-size:medium;font-style:normal;font-variant:normal;font-weight:normal;font-stretch:normal;text-indent:0;text-align:start;text-decoration:none;line-height:normal;letter-spacing:normal;word-spacing:normal;text-transform:none;direction:ltr;block-progression:tb;writing-mode:lr-tb;text-anchor:start;baseline-shift:baseline;opacity:0.3;color:#000000;fill:#ffffff;fill-opacity:1;stroke:none;stroke-width:3;marker:none;visibility:visible;display:inline;overflow:visible;enable-background:accumulate;font-family:Sans;-inkscape-font-specification:Sans"
       d="M 20.4375 2 C 19.670898 2.04 19.035749 2.4275 18.625 2.9375 L 18.59375 2.9375 L 16 6 L 16 4 A 0.99323983 0.99323983 0 0 0 15 3 L 6 3 C 4.9129787 3 4 3.9129787 4 5 L 4 18 C 4 19.087021 4.9129787 20 6 20 L 19 20 C 20.087021 20 21 19.087021 21 18 L 21 12 A 0.99323983 0.99323983 0 0 0 20 11 L 18.40625 11 L 22.46875 6.09375 A 1.0001 1.0001 0 0 0 22.5 6.0625 C 22.789534 5.6558 22.912116 5.2081 22.96875 4.75 C 23.02538 4.2919 23.03759 3.79155 22.75 3.28125 C 22.262632 2.41675 21.359464 1.9512 20.4375 2 z M 15.1875 6.96875 L 12.96875 9.59375 L 11.90625 8.34375 C 10.972048 7.25125 9.3595702 7.14935 8.28125 8.09375 C 8.1707918 8.1903625 8.0853191 8.3272895 8 8.4375 L 8 7 L 15 7 A 0.99323983 0.99323983 0 0 0 15.1875 6.96875 z M 8 11.4375 C 8.0512869 11.511647 8.0974448 11.586748 8.15625 11.65625 L 11.15625 15.1875 C 11.538274 15.6228 12.043586 15.898837 12.5625 16 L 8 16 L 8 11.4375 z M 17 12.6875 L 17 16 L 13.59375 16 C 14.109658 15.881047 14.598751 15.570162 14.96875 15.125 L 17 12.6875 z "
       transform="translate(0,1028.3622)"
       id="path3170" />
    <path
       style="color:#000000;fill:#444444;fill-opacity:1;stroke:none;stroke-width:2;marker:none;visibility:visible;display:inline;overflow:visible;enable-background:accumulate"
       d="M 20.5 3 C 19.998765 3.026 19.617488 3.254 19.375 3.5625 L 13 11.1875 L 11.15625 9.03125 C 10.618537 8.40245 9.5601757 8.3297 8.9375 8.875 C 8.3148243 9.4198 8.4293646 10.4363 8.90625 11 L 11.90625 14.53125 C 12.476265 15.18065 13.635341 15.1646 14.1875 14.5 L 21.6875 5.46875 C 22 5.02985 22.121452 4.21845 21.875 3.78125 C 21.580465 3.25875 21.013734 2.9728 20.5 3 z M 6 4 C 5.446 4 5 4.446 5 5 L 5 18 C 5 18.554 5.446 19 6 19 L 19 19 C 19.554 19 20 18.554 20 18 L 20 12 L 18 12 L 18 17 L 7 17 L 7 6 L 15 6 L 15 4 L 6 4 z "
       transform="translate(0,1028.3622)"
       id="rect11284" />
  </g>
</svg>
